X: 40947
T: Trip To Casmalia
R: jig
M: 6/8
K: Dmixolydian
|:F2E FDD|F2E FGA|F2E FDD|ECB, CEA|
F2E FDD|F2E FAA|GFG EFG|FDD DBA:|
|:c2A A2c-|cAG A2c|B2 G2 d2|B2 G2 B2|
c2A A2c-|cAG A2c|BGF GBd|1 BGF GAB:|2 ADD DFA:|

